cy/event-outline-alerted.svg

<svg viewBox="0 0 36 36" xmlns="http://www.w3.org/2000/svg" height="1em" width="1em">
  <path class="clr-i-outline--alerted clr-i-outline-path-1--alerted" d="M10 10a1 1 0 0 0 1-1V3a1 1 0 0 0-2 0v6a1 1 0 0 0 1 1Z"/>
  <path class="clr-i-outline--alerted clr-i-outline-path-2--alerted" d="m10.81 20.5 5.36 5.36 10.05-10.05a1 1 0 0 0 .23-.41H23.8L16.17 23l-3.94-3.94a1 1 0 0 0-1.41 1.41Z"/>
  <path class="clr-i-outline--alerted clr-i-outline-path-3--alerted" d="M21.29 6H13v2h7.14l1.15-2z"/>
  <path class="clr-i-outline--alerted clr-i-outline-path-4--alerted" d="M33.68 15.4H32V30H4V8h3V6H3.75A1.78 1.78 0 0 0 2 7.81v22.38A1.78 1.78 0 0 0 3.75 32h28.5A1.78 1.78 0 0 0 34 30.19V15.38Z"/>
  <path class="clr-i-outline--alerted clr-i-outline-path-5--alerted clr-i-alert" d="M26.85 1.14 21.13 11a1.28 1.28 0 0 0 1.1 2h11.45a1.28 1.28 0 0 0 1.1-2l-5.72-9.86a1.28 1.28 0 0 0-2.21 0Z"/>
  <path fill="none" d="M0 0h36v36H0z"/>
</svg>

<svg version="1.1" viewBox="0 0 36 36" preserveAspectRatio="xMidYMid meet" xmlns="http://www.w3.org/2000/svg" height="1em" width="1em">
  <path class="clr-i-outline--alerted clr-i-outline-path-1--alerted" d="M10,10a1,1,0,0,0,1-1V3A1,1,0,0,0,9,3V9A1,1,0,0,0,10,10Z"/>
  <path class="clr-i-outline--alerted clr-i-outline-path-2--alerted" d="M10.81,20.5l5.36,5.36L26.22,15.81a1,1,0,0,0,.23-.41H23.8L16.17,23l-3.94-3.94a1,1,0,0,0-1.41,1.41Z"/>
  <polygon class="clr-i-outline--alerted clr-i-outline-path-3--alerted" points="21.29 6 13 6 13 8 20.14 8 21.29 6"/>
  <path class="clr-i-outline--alerted clr-i-outline-path-4--alerted" d="M33.68,15.4H32V30H4V8H7V6H3.75A1.78,1.78,0,0,0,2,7.81V30.19A1.78,1.78,0,0,0,3.75,32h28.5A1.78,1.78,0,0,0,34,30.19V15.38Z"/>
  <path class="clr-i-outline--alerted clr-i-outline-path-5--alerted clr-i-alert" d="M26.85,1.14,21.13,11A1.28,1.28,0,0,0,22.23,13H33.68A1.28,1.28,0,0,0,34.78,11L29.06,1.14A1.28,1.28,0,0,0,26.85,1.14Z"/>
  <rect x="0" y="0" width="36" height="36" fill-opacity="0"/>
</svg>
